src/img/train-night.svg

<svg xmlns="http://www.w3.org/2000/svg" width="24" height="24" version="1.1" viewBox="0 0 24 24">
  <path fill="none" fill-rule="evenodd" stroke="#000" stroke-width="1" d="M20.231,6.8057 C19.365,6.8057 18.534,6.4617 17.921,5.8497 C17.309,5.2377 16.965,4.4067 16.965,3.5397 C16.969,3.1857 17.031,2.8337 17.149,2.4997 C16.623,2.6757 16.15,2.9837 15.775,3.3937 C15.401,3.8027 15.138,4.3017 15.01,4.8417 C14.883,5.3827 14.896,5.9467 15.047,6.4807 C15.199,7.0147 15.485,7.5007 15.877,7.8937 C16.27,8.2857 16.756,8.5717 17.291,8.7237 C17.824,8.8747 18.388,8.8877 18.929,8.7607 C19.469,8.6327 19.968,8.3697 20.377,7.9947 C20.788,7.6207 21.095,7.1487 21.271,6.6207 C20.937,6.7397 20.585,6.8017 20.231,6.8057 Z M14.0107,15.5 L8.4997,15.5 L8.4997,11.5 L12.5737,11.5 M6.8379,19.5 C6.8379,20.604 7.7339,21.5 8.8379,21.5 C9.9419,21.5 10.8379,20.604 10.8379,19.5 M5.5,8.5 L2.5,6.5 L5.5,4.5 L8.5,6.5 L5.5,8.5 M2,11.5 L6.5,11.5 L6.5,15.5 L2,15.5 M2,8.5 L8.338,8.5 C10.308,8.5 11.965,9.774 12.574,11.538 L14.678,17.339 C14.777,17.539 14.838,17.762 14.838,18 C14.838,18.829 14.166,19.5 13.338,19.5 L2,19.5 M22,21.5 L2,21.5"/>
</svg>

<svg xmlns="http://www.w3.org/2000/svg" width="24" height="24"><path fill="none" stroke="#000" d="M20.231 6.806a3.267 3.267 0 0 1-3.266-3.266c.004-.354.066-.706.184-1.04a3.269 3.269 0 0 0-2.139 2.342 3.274 3.274 0 0 0 .037 1.639 3.266 3.266 0 0 0 3.882 2.28 3.252 3.252 0 0 0 1.448-.766 3.24 3.24 0 0 0 .894-1.374 3.208 3.208 0 0 1-1.04.185Zm-6.22 8.694H8.5v-4h4.074m-5.736 8a2 2 0 0 0 4 0M5.5 8.5l-3-2 3-2 3 2-3 2m-3.5 3h4.5v4H2m0-7h6.338c1.97 0 3.627 1.274 4.236 3.038l2.104 5.801c.099.2.16.423.16.661a1.5 1.5 0 0 1-1.5 1.5H2m20 2H2"/></svg>
